X:4765
T:Polska efter Afzelius
L:1/8
M:3/4
O:Sweden
R:Polska
Z:Carol Turner
%%TUNEURL: http://www.leeds.ac.uk/music/Info/RRTuneBk/gettune/00000c5e.html
%%ID:00000c5e
K:A min
e|\
a2 (ef) de |c2 (AB) cd |e(a ef) de |c2 A3::
c|\
(cB)G2 Bd| (dc)A2 Ac| (cB)G2 Bd| c2A3:|
